48x48/devices/audio-speaker-mono-testing.svg

<?xml version="1.0" encoding="UTF-8" standalone="no"?>
<!-- Created with Inkscape (http://www.inkscape.org/) -->

<svg
   xmlns:dc="http://purl.org/dc/elements/1.1/"
   xmlns:cc="http://creativecommons.org/ns#"
   xmlns:rdf="http://www.w3.org/1999/02/22-rdf-syntax-ns#"
   xmlns:svg="http://www.w3.org/2000/svg"
   xmlns="http://www.w3.org/2000/svg"
   xmlns:sodipodi="http://sodipodi.sourceforge.net/DTD/sodipodi-0.dtd"
   xmlns:inkscape="http://www.inkscape.org/namespaces/inkscape"
   width="48"
   height="48"
   viewBox="0 0 12.7 12.7"
   version="1.1"
   id="svg11382"
   inkscape:version="0.92.4 (5da689c313, 2019-01-14)"
   sodipodi:docname="audio-speaker-mono-testing.svg">
  <defs
     id="defs11376" />
  <sodipodi:namedview
     id="base"
     pagecolor="#ffffff"
     bordercolor="#666666"
     borderopacity="1.0"
     inkscape:pageopacity="0.0"
     inkscape:pageshadow="2"
     inkscape:zoom="4"
     inkscape:cx="15.875"
     inkscape:cy="24.567554"
     inkscape:document-units="px"
     inkscape:current-layer="layer1"
     showgrid="false"
     units="px"
     inkscape:window-width="1296"
     inkscape:window-height="704"
     inkscape:window-x="70"
     inkscape:window-y="27"
     inkscape:window-maximized="1">
    <inkscape:grid
       type="xygrid"
       id="grid11927" />
  </sodipodi:namedview>
  <metadata
     id="metadata11379">
    <rdf:RDF>
      <cc:Work
         rdf:about="">
        <dc:format>image/svg+xml</dc:format>
        <dc:type
           rdf:resource="http://purl.org/dc/dcmitype/StillImage" />
        <dc:title></dc:title>
      </cc:Work>
    </rdf:RDF>
  </metadata>
  <g
     inkscape:label="Layer 1"
     inkscape:groupmode="layer"
     id="layer1"
     transform="translate(0,-284.3)">
    <path
       style="opacity:1;vector-effect:none;fill:#924d8b;fill-opacity:1;stroke:none;stroke-width:0.26511249;stroke-linecap:butt;stroke-linejoin:miter;stroke-miterlimit:4;stroke-dasharray:none;stroke-dashoffset:6.5999999;stroke-opacity:1"
       d="m 8.2072508,285.69785 -0.2800861,0.74569 a 4.4979166,4.4979166 0 0 1 2.9207513,4.20646 4.4979166,4.4979166 0 0 1 -2.9197178,4.20905 l 0.2775024,0.74 A 5.2916663,5.2916663 0 0 0 11.641666,290.65 5.2916663,5.2916663 0 0 0 8.2072508,285.69785 Z m -3.7129516,0.003 A 5.2916663,5.2916663 0 0 0 1.0583333,290.65 5.2916663,5.2916663 0 0 0 4.492749,295.60215 l 0.2800861,-0.74569 A 4.4979166,4.4979166 0 0 1 1.8520833,290.65 4.4979166,4.4979166 0 0 1 4.7718016,286.44095 Z m 2.876827,2.22519 -0.2790526,0.74414 a 2.1166665,2.1166665 0 0 1 1.3745929,1.97972 2.1166665,2.1166665 0 0 1 -1.3735595,1.98076 l 0.2775024,0.74104 A 2.9104166,2.9104166 0 0 0 9.2604165,290.65 2.9104166,2.9104166 0 0 0 7.3711262,287.92614 Z m -2.0417359,0.002 a 2.9104166,2.9104166 0 0 0 -1.889807,2.7218 2.9104166,2.9104166 0 0 0 1.8892903,2.72386 l 0.2790526,-0.74414 A 2.1166665,2.1166665 0 0 1 4.2333332,290.65 2.1166665,2.1166665 0 0 1 5.6068927,288.66924 Z"
       id="path12788"
       inkscape:connector-curvature="0" />
    <circle
       style="opacity:1;vector-effect:none;fill:#808080;fill-opacity:1;stroke:none;stroke-width:0.26511249;stroke-linecap:butt;stroke-linejoin:miter;stroke-miterlimit:4;stroke-dasharray:none;stroke-dashoffset:6.5999999;stroke-opacity:1"
       id="path13370"
       cx="6.3499999"
       cy="290.64999"
       r="0.52916664" />
  </g>
</svg>

<svg width="48" height="48" viewBox="0 0 12.7 12.7" xmlns="http://www.w3.org/2000/svg"><g transform="translate(0 -284.3)"><path style="opacity:1;vector-effect:none;fill:#e74b18;fill-opacity:1;stroke:none;stroke-width:.26511249;stroke-linecap:butt;stroke-linejoin:miter;stroke-miterlimit:4;stroke-dasharray:none;stroke-dashoffset:6.5999999;stroke-opacity:1" d="m8.207 285.698-.28.746a4.498 4.498 0 0 1 2.92 4.206 4.498 4.498 0 0 1-2.919 4.21l.278.74a5.292 5.292 0 0 0 3.436-4.95 5.292 5.292 0 0 0-3.435-4.952zm-3.713.003a5.292 5.292 0 0 0-3.436 4.949 5.292 5.292 0 0 0 3.435 4.952l.28-.746a4.498 4.498 0 0 1-2.92-4.206 4.498 4.498 0 0 1 2.919-4.209zm2.877 2.225-.279.744a2.117 2.117 0 0 1 1.375 1.98 2.117 2.117 0 0 1-1.374 1.98l.278.742a2.91 2.91 0 0 0 1.89-2.722 2.91 2.91 0 0 0-1.89-2.724zm-2.042.002a2.91 2.91 0 0 0-1.89 2.722 2.91 2.91 0 0 0 1.89 2.724l.279-.744a2.117 2.117 0 0 1-1.375-1.98 2.117 2.117 0 0 1 1.374-1.98z"/><circle style="opacity:1;vector-effect:none;fill:gray;fill-opacity:1;stroke:none;stroke-width:.26511249;stroke-linecap:butt;stroke-linejoin:miter;stroke-miterlimit:4;stroke-dasharray:none;stroke-dashoffset:6.5999999;stroke-opacity:1" cx="6.35" cy="290.65" r=".529"/></g></svg>
